X: 27304
T: Missing Tune, The
R: reel
M: 4/4
K: Dmajor
|:AB|d6 de|f/a3a4 (3fed|B6 BA|F/A3A4|
D6 GF|G2 d4 cd|e4eedc|1 A6 AB:|2 A6AA||
|:B2 d4 cd|e2 a4 ag|f2 a2 e2 a2|d2 f2 B3 B|
A4AAFE|D6 EF|G2 d2 eedc|1 d6 dA:|2 d6 AB||

